Adwaita++/apps/16/audacious.svg

<svg height="16" width="16" xmlns="http://www.w3.org/2000/svg">
  <path d="m8.7337733 1.5025808c3.2359747.11479 5.1503437 2.1666874 5.3614337 5.1583509.237941 3.3724073-.819098 4.2505093-.365558 4.9281833.947108 1.415127-.395805 1.786186-1.286198 2.477638-.553811.430071-1.622406.232973-2.152701-.379092-1.6113947-.873823-.9909983.805031-4.3189316.812339-1.730006-.06643-3.3158172-1.237725-3.7638341-2.816115-.6870988-2.4206122.3213714-4.2069079 3.1274999-5.0500322.8116516-.2438661 2.419354-.0965897 3.1275001-.5821766.6688084-.4585727.4286212-1.1190475-.3926241-1.2049642-1.1778336-.1232395-3.0154926.3782201-4.1023133.1760059-.8724004-.1623301-1.1379376-1.7245072-.5686303-2.3964092.9316275-1.099548 3.3208737-1.0516041 4.6709436-1.1101949.2273561-.0104.4476791-.02119.6634131-.01352zm-.433249 7.2298134c-.7495252 0-1.3674381.5248596-1.3674381 1.1778908 0 .653032.6179129 1.19143 1.3674381 1.19143.7495244 0 1.3403587-.538398 1.3403587-1.19143 0-.6530312-.5908343-1.1778908-1.3403587-1.1778908z" fill="#444"/>
</svg>

<svg xmlns="http://www.w3.org/2000/svg" width="16" height="16" version="1.1">
 <g>
  <path fill="#444" d="m 8.7337733,1.5025808 c 3.2359747,0.11479 5.1503437,2.1666874 5.3614337,5.1583509 0.237941,3.3724073 -0.819098,4.2505093 -0.365558,4.9281833 0.947108,1.415127 -0.395805,1.786186 -1.286198,2.477638 C 11.88964,14.496824 10.821045,14.299726 10.29075,13.687661 8.6793553,12.813838 9.2997517,14.492692 5.9718184,14.5 4.2418124,14.43357 2.6560012,13.262275 2.2079843,11.683885 1.5208855,9.2632728 2.5293557,7.4769771 5.3354842,6.6338528 6.1471358,6.3899867 7.7548382,6.5372631 8.4629843,6.0516762 9.1317927,5.5931035 8.8916055,4.9326287 8.0703602,4.846712 6.8925266,4.7234725 5.0548676,5.2249321 3.9680469,5.0227179 3.0956465,4.8603878 2.8301093,3.2982107 3.3994166,2.6263087 4.3310441,1.5267607 6.7202903,1.5747046 8.0703602,1.5161138 c 0.2273561,-0.0104 0.4476791,-0.02119 0.6634131,-0.01352 z m -0.433249,7.2298134 c -0.7495252,0 -1.3674381,0.5248596 -1.3674381,1.1778908 0,0.653032 0.6179129,1.19143 1.3674381,1.19143 0.7495244,0 1.3403587,-0.538398 1.3403587,-1.19143 0,-0.6530312 -0.5908343,-1.1778908 -1.3403587,-1.1778908 z"/>
 </g>
</svg>
